ix/keyboard_bulk.svg

<svg viewBox="0 0 24 24" fill="none" xmlns="http://www.w3.org/2000/svg" height="1em" width="1em">
  <path opacity="0.4" d="M18.27 3.35C17.8 3.28 17.26 3.25 16.5 3.25H7.5C6.75 3.25 6.2 3.28 5.76 3.34C2.41 3.71 1.75 5.7 1.75 9V15C1.75 18.3 2.41 20.29 5.73 20.65C6.2 20.72 6.74 20.75 7.5 20.75H16.5C17.25 20.75 17.8 20.72 18.24 20.66C21.59 20.29 22.25 18.31 22.25 15V9C22.25 5.7 21.59 3.71 18.27 3.35Z" fill="#292D32"/>
  <path d="M17 10.75H13.5C13.09 10.75 12.75 10.41 12.75 10C12.75 9.59 13.09 9.25 13.5 9.25H17C17.41 9.25 17.75 9.59 17.75 10C17.75 10.41 17.41 10.75 17 10.75Z" fill="#292D32"/>
  <path d="M10.0996 11C9.54961 11 9.09961 10.55 9.09961 10C9.09961 9.45 9.53961 9 10.0996 9H10.1096C10.6596 9 11.1096 9.45 11.1096 10C11.1096 10.55 10.6596 11 10.0996 11Z" fill="#292D32"/>
  <path d="M7.09961 11C6.54961 11 6.09961 10.55 6.09961 10C6.09961 9.45 6.53961 9 7.09961 9C7.64961 9 8.09961 9.45 8.09961 10C8.09961 10.55 7.65961 11 7.09961 11Z" fill="#292D32"/>
  <path d="M16.9998 16.25H7.01977C6.60977 16.25 6.25977 15.91 6.25977 15.5C6.25977 15.09 6.58977 14.75 6.99977 14.75H16.9998C17.4098 14.75 17.7498 15.09 17.7498 15.5C17.7498 15.91 17.4098 16.25 16.9998 16.25Z" fill="#292D32"/>
</svg>

<svg viewBox="0 0 24 24" fill="none" xmlns="http://www.w3.org/2000/svg" height="1em" width="1em">
  <path opacity=".4" d="M18.27 3.35c-.47-.07-1.01-.1-1.77-.1h-9c-.75 0-1.3.03-1.74.09C2.41 3.71 1.75 5.7 1.75 9v6c0 3.3.66 5.29 3.98 5.65.47.07 1.01.1 1.77.1h9c.75 0 1.3-.03 1.74-.09 3.35-.37 4.01-2.35 4.01-5.66V9c0-3.3-.66-5.29-3.98-5.65Z" fill="#292D32"/>
  <path d="M17 10.75h-3.5c-.41 0-.75-.34-.75-.75s.34-.75.75-.75H17c.41 0 .75.34.75.75s-.34.75-.75.75Zm-6.9.25c-.55 0-1-.45-1-1s.44-1 1-1h.01c.55 0 1 .45 1 1s-.45 1-1.01 1Zm-3 0c-.55 0-1-.45-1-1s.44-1 1-1c.55 0 1 .45 1 1s-.44 1-1 1Zm9.9 5.25H7.02c-.41 0-.76-.34-.76-.75s.33-.75.74-.75h10c.41 0 .75.34.75.75s-.34.75-.75.75Z" fill="#292D32"/>
</svg>
